X:6462
T:Teviot Bridge
O:england
M:6/8
L:1/8
Q:180
K:G
edB GD2|GE2 GD2|GDE DD2|Bc2 BA2|GdB GD2|GE2 GD2|Bc2 edB|GA3G2|e
W: G C G G D7 G C G C G D7 G
dB GD2|GE2 GD2|GDE DD2|Bc2 BA2|GdB GD2|GE2 GD2|Bc2 edB|GA3G2|e
W: G C G G D7 G C G C G D7 G
dB GGB|def eef|gdB GGB|GAF DD2|edB GGB|dgf edc|Bce2dB|GA3G2|e
W: G C G D7 G C G C G D7 G
dB GGB|def eef|gdB GGB|GAF DD2|edB GGB|dgf edc|Bce gdB|GA3G2|z
W: G C G D7 G C G C G D7 G


